image/box-icons-item5.svg

<svg fill="none" height="48" viewBox="0 0 48 48" width="48" xmlns="http://www.w3.org/2000/svg"><path clip-rule="evenodd" d="m9.66253 9.13701c-3.89261 3.75579-6.31369 9.02669-6.31369 14.86299 0 11.4053 9.24586 20.6512 20.65116 20.6512.2847 0 .568-.0058.8499-.0172-.4587-2.0353-.5209-4.7714.878-7.4076 1.4558-2.7435 4.4702-3.934 6.6863-4.4787 1.1612-.2854 2.2369-.4262 3.019-.4964.393-.0353.717-.0532.9467-.0622.115-.0046.2067-.0069.272-.0082l.078-.0011.0189-.0001c3.7339-.0389 5.4162-1.2532 6.309-2.4116.7627-.9895 1.0506-1.9792 1.3426-2.983.0372-.1277.0744-.2556.1127-.3838.0912-.7878.1381-1.5891.1381-2.4013 0-5.6352-2.2571-10.7431-5.9165-14.46926-.0195.07604-.0394.15098-.0596.22466-.3635 1.3238-.9505 2.6825-1.5883 3.6505-.5713.8671-1.6796 1.7418-2.5994 2.4027-.6054.435-1.2357.8045-1.8073 1.134-.0691.0399-.1373.079-.2045.1177-.5093.2929-.9673.5563-1.4081.8476-.9641.6369-1.71 1.3225-2.2121 2.3577-.1758.3625-.1812.7162-.0773 1.0948.1665.6062.28 1.2881.2818 1.9833.0037 1.4489-.7344 2.6248-1.6829 3.3892-.9373.7554-2.1622 1.1874-3.3953 1.174-5.4815-.0599-8.8518-4.5084-9.2963-9.456-.1769-1.9681-1.0397-3.9589-2.1293-5.6989-1.0005-1.5979-2.1279-2.88197-2.89357-3.61499zm2.60547-2.13433c.9266.93322 2.0892 2.3156 3.1265 3.97212 1.2447 1.9878 2.385 4.4915 2.6263 7.1765.337 3.7512 2.7082 6.371 5.9975 6.4069.4522.005.9222-.1626 1.2573-.4327.324-.2611.436-.5367.4354-.7732-.0009-.3471-.0594-.7309-.1622-1.1052-.2705-.9852-.3092-2.2004.2935-3.4429.8595-1.7722 2.1334-2.8674 3.3792-3.6904.5339-.3528 1.0876-.671 1.5873-.9581.0674-.0388.1337-.0769.199-.1145.5698-.3284 1.07-.6249 1.5256-.9522.9624-.6915 1.5711-1.2435 1.757-1.5255.4073-.6183.8655-1.63904 1.1553-2.69466.2296-.83639.2934-1.47827.2719-1.87612-3.3292-2.29808-7.3662-3.64388-11.7176-3.64388-4.3576 0-8.4 1.34969-11.732 3.65384zm35.574 19.76632c.1044-.9085.158-1.8325.158-2.769 0-13.2548-10.7452-24-24-24s-24 10.7452-24 24 10.7452 24 24 24c12.1906 0 22.2584-9.089 23.7965-20.8601.0408-.1419.0761-.2598.1076-.3489zm-6.1944 7.9621c-1.3297.4873-2.9324.7771-4.8638.7973l-.0175.0002v-.0001h-.006l-.0459.0007c-.0434.0008-.1118.0025-.2022.0061-.1811.0071-.4489.0217-.7797.0514-.6656.0598-1.5661.1788-2.5189.413-2.0121.4946-3.7774 1.3827-4.5275 2.7964-1.0168 1.9161-.8718 4.0011-.4925 5.429 5.6908-1.1738 10.526-4.689 13.454-9.494z" fill="#4b4b4b" fill-rule="evenodd"/></svg>

<svg width="48" height="48" viewBox="0 0 48 48" fill="none" xmlns="http://www.w3.org/2000/svg">
<path fill-rule="evenodd" clip-rule="evenodd" d="M9.66253 9.13701C5.76992 12.8928 3.34884 18.1637 3.34884 24C3.34884 35.4053 12.5947 44.6512 24 44.6512C24.2847 44.6512 24.568 44.6454 24.8499 44.634C24.3912 42.5987 24.329 39.8626 25.7279 37.2264C27.1837 34.4829 30.1981 33.2924 32.4142 32.7477C33.5754 32.4623 34.6511 32.3215 35.4332 32.2513C35.8262 32.216 36.1502 32.1981 36.3799 32.1891C36.4949 32.1845 36.5866 32.1822 36.6519 32.1809L36.7299 32.1798L36.7488 32.1797C40.4827 32.1408 42.165 30.9265 43.0578 29.7681C43.8205 28.7786 44.1084 27.7889 44.4004 26.7851C44.4376 26.6574 44.4748 26.5295 44.5131 26.4013C44.6043 25.6135 44.6512 24.8122 44.6512 24C44.6512 18.3648 42.3941 13.2569 38.7347 9.53074C38.7152 9.60678 38.6953 9.68172 38.6751 9.7554C38.3116 11.0792 37.7246 12.4379 37.0868 13.4059C36.5155 14.273 35.4072 15.1477 34.4874 15.8086C33.882 16.2436 33.2517 16.6131 32.6801 16.9426C32.611 16.9825 32.5428 17.0216 32.4756 17.0603C31.9663 17.3532 31.5083 17.6166 31.0675 17.9079C30.1034 18.5448 29.3575 19.2304 28.8554 20.2656C28.6796 20.6281 28.6742 20.9818 28.7781 21.3604C28.9446 21.9666 29.0581 22.6485 29.0599 23.3437C29.0636 24.7926 28.3255 25.9685 27.377 26.7329C26.4397 27.4883 25.2148 27.9203 23.9817 27.9069C18.5002 27.847 15.1299 23.3985 14.6854 18.4509C14.5085 16.4828 13.6457 14.492 12.5561 12.752C11.5556 11.1541 10.4282 9.87003 9.66253 9.13701ZM12.268 7.00268C13.1946 7.9359 14.3572 9.31828 15.3945 10.9748C16.6392 12.9626 17.7795 15.4663 18.0208 18.1513C18.3578 21.9025 20.729 24.5223 24.0183 24.5582C24.4705 24.5632 24.9405 24.3956 25.2756 24.1255C25.5996 23.8644 25.7116 23.5888 25.711 23.3523C25.7101 23.0052 25.6516 22.6214 25.5488 22.2471C25.2783 21.2619 25.2396 20.0467 25.8423 18.8042C26.7018 17.032 27.9757 15.9368 29.2215 15.1138C29.7554 14.761 30.3091 14.4428 30.8088 14.1557C30.8762 14.1169 30.9425 14.0788 31.0078 14.0412C31.5776 13.7128 32.0778 13.4163 32.5334 13.089C33.4958 12.3975 34.1045 11.8455 34.2904 11.5635C34.6977 10.9452 35.1559 9.92446 35.4457 8.86884C35.6753 8.03245 35.7391 7.39057 35.7176 6.99272C32.3884 4.69464 28.3514 3.34884 24 3.34884C19.6424 3.34884 15.6 4.69853 12.268 7.00268ZM47.842 26.769C47.9464 25.8605 48 24.9365 48 24C48 10.7452 37.2548 0 24 0C10.7452 0 0 10.7452 0 24C0 37.2548 10.7452 48 24 48C36.1906 48 46.2584 38.911 47.7965 27.1399C47.8373 26.998 47.8726 26.8801 47.9041 26.791L47.842 26.769ZM41.6476 34.7311C40.3179 35.2184 38.7152 35.5082 36.7838 35.5284L36.7663 35.5286V35.5285L36.7603 35.5285L36.7144 35.5292C36.671 35.53 36.6026 35.5317 36.5122 35.5353C36.3311 35.5424 36.0633 35.557 35.7325 35.5867C35.0669 35.6465 34.1664 35.7655 33.2136 35.9997C31.2015 36.4943 29.4362 37.3824 28.6861 38.7961C27.6693 40.7122 27.8143 42.7972 28.1936 44.2251C33.8844 43.0513 38.7196 39.5361 41.6476 34.7311Z" fill="#4B4B4B"/>
</svg>
